X: 12
T: Missus est Gabriel angelus / Hic erit magnus
N: Derived from Mou2124-Missus_est_Gabriel.krn
C: Mouton
%%abc-version 2.0
%%abcx-abcm2ps-target-version 5.9.1 (29 Sep 2008)
%%abc-creator hum2abc beta
%%abcx-conversion-date 2019/02/17 07:22:04
%%abc-edited-by Jesse Rodin
%%abc-edited-by Victoria Chang
%%abcx-initial-encoding-date 2011/03/23/
%%humdrum-veritas 4081407582
%%humdrum-veritas-data 2221099030
%%linebreak <none>
%%barnumbers 0
L: 1/4
M: 2/1
Q: 1/2=120
V: 1 clef=treble
V: 2 clef=treble
V: 3 clef=treble-8
V: 4 clef=treble-8
V: 5 clef=bass
K: C
[V:1] z8 | 
[V:2] A8- | 
[V:3] A8- | 
[V:4] e4c4- | 
[V:5] z4A,4 | 
[V:1] A4F4 | 
[V:2] A8 | 
[V:3] A8 | 
[V:4] c2BAd4- | 
[V:5] F,4D,4 | 
[V:1] D4G4 | 
[V:2] G8 | 
[V:3] B8 | 
[V:4] d2cBe3d | 
[V:5] G,4E,2E,2 | 
[V:1] E2E2A3G | 
[V:2] A8 | 
[V:3] c8 | 
[V:4] c3BA4- | 
[V:5] A,3G,F,2E,2 | 
[V:1] F2E2D2d2- | 
[V:2] A4z4 | 
[V:3] d8 | 
[V:4] A4B3c | 
[V:5] D,4G,3F, | 
[V:1] def4ed | 
[V:2] A4A2A2- | 
[V:3] f8 | 
[V:4] d4A3B | 
[V:5] D,8 | 
[V:1] c2e3dcB | 
[V:2] A2A2G2A2 | 
[V:3] e8 | 
[V:4] c4B2c2- | 
[V:5] A,3G,E,2A,2- | 
[V:1] A2d4^c2 | 
[V:2] c2B2A3G | 
[V:3] e8 | 
[V:4] cAB2c4 | 
[V:5] A,2G,2A,4 | 
[V:1] d4d4 | 
[V:2] AGFED2G2- | 
[V:3] d8- | 
[V:4] A2_B4AG | 
[V:5] D,4G,4 | 
[V:1] d4d4 | 
[V:2] G2^F2G4- | 
[V:3] d4B4 | 
[V:4] A4z2G2 | 
[V:5] D,4G,4 | 
[V:1] e6d2 | 
[V:2] G8 | 
[V:3] c6d2 | 
[V:4] G2G2c3B | 
[V:5] C,8- | 
[V:1] c2B2A3B | 
[V:2] z4D4 | 
[V:3] e4f4 | 
[V:4] A2G2F4 | 
[V:5] C,4D,4 | 
[V:1] cdc3BAG | 
[V:2] E4C4 | 
[V:3] g4a4- | 
[V:4] E4A4 | 
[V:5] C,4F,3E, | 
[V:1] F2EDd4 | 
[V:2] D8 | 
[V:3] a4^g4 | 
[V:4] A4B4 | 
[V:5] D,2C,2B,,4 | 
[V:1] c4z4 | 
[V:2] E4D2A2 | 
[V:3] a4f4 | 
[V:4] c4A3B | 
[V:5] A,,4D,4 | 
[V:1] e4e4 | 
[V:2] G2B2cBAG | 
[V:3] e8 | 
[V:4] c8 | 
[V:5] z2C,2C,2C,2 | 
[V:1] f3ed2c2 | 
[V:2] F3GA_BA2- | 
[V:3] d8- | 
[V:4] A8 | 
[V:5] D,6F,2 | 
[V:1] B4A4 | 
[V:2] AGG4^F2 | 
[V:3] d8 | 
[V:4] z4z2d2 | 
[V:5] G,4D,4 | 
[V:1] B4A2c2- | 
[V:2] G4C4 | 
[V:3] z8 | 
[V:4] d2e2f3e | 
[V:5] G,4F,4- | 
[V:1] cBA4G2 | 
[V:2] z4D4- | 
[V:3] z8 | 
[V:4] d2c2B4 | 
[V:5] F,4G,4 | 
[V:1] A6f2- | 
[V:2] D4A4- | 
[V:3] f8- | 
[V:4] A2d4c2 | 
[V:5] D,3E,F,4 | 
[V:1] fed4^c2 | 
[V:2] A2A2A4 | 
[V:3] f4e4 | 
[V:4] d4A4 | 
[V:5] D,4z2A,2 | 
[V:1] d4z4 | 
[V:2] F4_B2A2- | 
[V:3] d8 | 
[V:4] z8 | 
[V:5] _B,3A,G,2F,2- | 
[V:1] z4e4 | 
[V:2] A2GFG4 | 
[V:3] c8 | 
[V:4] A4G4 | 
[V:5] F,2E,D,E,4 | 
[V:1] f3ed2c2 | 
[V:2] F3GA4- | 
[V:3] d4f4- | 
[V:4] A2d3cA2- | 
[V:5] D,6F,2- | 
[V:1] d2e4dc | 
[V:2] A4G4- | 
[V:3] f2e2g4- | 
[V:4] ABcde4 | 
[V:5] F,E,/D,/C,3D,E,F, | 
[V:1] B2A3GG2- | 
[V:2] G2A2B4 | 
[V:3] g2f2e2d2 | 
[V:4] d4B4 | 
[V:5] G,2D,2G,4 | 
[V:1] G2F2G2A2- | 
[V:2] A4d4- | 
[V:3] c4B2c2 | 
[V:4] c4d2f2- | 
[V:5] A,4G,2F,2 | 
[V:1] AGFED2d2- | 
[V:2] d4A4- | 
[V:3] d4f4 | 
[V:4] f3/e/dcd4 | 
[V:5] D,4z4 | 
[V:1] d2^c2d4- | 
[V:2] A4F4 | 
[V:3] e4d4- | 
[V:4] A4z4 | 
[V:5] z2A,2_B,3A, | 
[V:1] d4z4 | 
[V:2] G2A4G2- | 
[V:3] d4c4 | 
[V:4] z4G4 | 
[V:5] G,2F,2E,4 | 
[V:1] A4B4 | 
[V:2] G2^F2G4- | 
[V:3] d4B4 | 
[V:4] A4G4- | 
[V:5] D,4z4 | 
[V:1] G2c4BA | 
[V:2] G4z4 | 
[V:3] c6d2 | 
[V:4] G4A4 | 
[V:5] C,4F,4 | 
[V:1] G6FE | 
[V:2] B3GBGc2- | 
[V:3] e8 | 
[V:4] B6A2 | 
[V:5] E,3F,G,E,A,2- | 
[V:1] A8 | 
[V:2] cBAGFEA2 | 
[V:3] A8 | 
[V:4] c4d2cd | 
[V:5] A,G,F,E,D,2F,2 | 
[V:1] z4E4 | 
[V:2] G2A4^G2 | 
[V:3] z8 | 
[V:4] e2c2B4 | 
[V:5] E,3D,E,4 | 
[V:1] E6F2 | 
[V:2] A2c4BA | 
[V:3] c8 | 
[V:4] A8 | 
[V:5] A,,4z2A,2 | 
[V:1] G2A4G2 | 
[V:2] B2A2d4 | 
[V:3] d8 | 
[V:4] z4G4 | 
[V:5] G,2F,2_B,4 | 
[V:1] A4B4 | 
[V:2] c4z4 | 
[V:3] e4g4 | 
[V:4] c4d4- | 
[V:5] A,4G,4 | 
[V:1] A2d3cBA | 
[V:2] z8 | 
[V:3] f8 | 
[V:4] d2A2d3c | 
[V:5] D,4D,4 | 
[V:1] G2A3^GG^F | 
[V:2] z4B4 | 
[V:3] e8- | 
[V:4] B2A2B4 | 
[V:5] E,8 | 
[V:1] A4z4 | 
[V:2] c4B4 | 
[V:3] e4d4 | 
[V:4] A4z4 | 
[V:5] z4G,4 | 
[V:1] z4c4 | 
[V:2] A4A4 | 
[V:3] f8 | 
[V:4] c4c4 | 
[V:5] F,4F,4 | 
[V:1] c4B4 | 
[V:2] G4G4 | 
[V:3] e4d4- | 
[V:4] c4G4 | 
[V:5] C,4z4 | 
[V:1] A4A4 | 
[V:2] F6E2 | 
[V:3] d4c4 | 
[V:4] z4A4 | 
[V:5] D,4F,4 | 
[V:1] G4G2DE | 
[V:2] D2d2B2d2- | 
[V:3] B8 | 
[V:4] d6d2 | 
[V:5] G,8 | 
[V:1] FGA4GF | 
[V:2] d2cBA3B | 
[V:3] A8 | 
[V:4] d4c4- | 
[V:5] D,4F,4 | 
[V:1] E4A4 | 
[V:2] cdc4BA | 
[V:3] z4c4- | 
[V:4] c2G2A2F2 | 
[V:5] C,4F,4 | 
[V:1] z8 | 
[V:2] G4F2A2- | 
[V:3] c4d4 | 
[V:4] G4A4 | 
[V:5] E,4D,4 | 
[V:1] A4A4 | 
[V:2] AGFED4 | 
[V:3] f8 | 
[V:4] F3GA_BA2- | 
[V:5] D,8 | 
[V:1] c8 | 
[V:2] z4A4- | 
[V:3] e4e4- | 
[V:4] A2GFE4 | 
[V:5] A,,8 | 
[V:1] c4d4 | 
[V:2] A4A4 | 
[V:3] e4d4 | 
[V:4] z2A4A2 | 
[V:5] A,,4D,4 | 
[V:1] d8- | 
[V:2] F4G4 | 
[V:3] d8 | 
[V:4] A4B4 | 
[V:5] D,4G,4 | 
[V:1] d8 | 
[V:2] A4z4 | 
[V:3] z8 | 
[V:4] A2d4d2 | 
[V:5] D,3E,F,D,G,2- | 
[V:1] z8 | 
[V:2] z4E4 | 
[V:3] g8 | 
[V:4] B4c4 | 
[V:5] G,F,E,D,E,4 | 
[V:1] d4c4 | 
[V:2] A4A4 | 
[V:3] f6e2 | 
[V:4] d4A4 | 
[V:5] D,4z4 | 
[V:1] d4d4 | 
[V:2] A4D4 | 
[V:3] f4g4- | 
[V:4] d6B2 | 
[V:5] D,4G,3F, | 
[V:1] e2f3edc | 
[V:2] z4F4 | 
[V:3] g2f2d4- | 
[V:4] c2d3cBA | 
[V:5] E,2D,2z4 | 
[V:1] d4c3B | 
[V:2] F4E2E2- | 
[V:3] d4a4- | 
[V:4] B2A4G2 | 
[V:5] D,4A,,4- | 
[V:1] c2d2c2B2 | 
[V:2] E2D2E4 | 
[V:3] a4g4 | 
[V:4] F4E4 | 
[V:5] A,,2B,,2C,4 | 
[V:1] A6G2 | 
[V:2] A,3B,C2D2 | 
[V:3] f4e2d2 | 
[V:4] F3GA2_B2 | 
[V:5] D,4z4 | 
[V:1] A2c2B2A2- | 
[V:2] E2F2G2A2 | 
[V:3] c4d4- | 
[V:4] A4B2c2 | 
[V:5] z2A,2G,2F,2 | 
[V:1] AGFED2d2- | 
[V:2] F3GA4 | 
[V:3] d4f4 | 
[V:4] d2A2F3G | 
[V:5] D,8 | 
[V:1] d2^cBc4 | 
[V:2] z4A4- | 
[V:3] e8 | 
[V:4] A8 | 
[V:5] A,,8 | 
[V:1] d4z4 | 
[V:2] A2F4ED | 
[V:3] d8 | 
[V:4] z4A4- | 
[V:5] D,6C,B,, | 
[V:1] A8 | 
[V:2] E2F2E2F2- | 
[V:3] z8 | 
[V:4] A4A4 | 
[V:5] A,,2D,2C,2D,2 | 
[V:1] A4d4- | 
[V:2] F2EDA4 | 
[V:3] f8 | 
[V:4] d4d4 | 
[V:5] z4D,4 | 
[V:1] d4d4 | 
[V:2] G8 | 
[V:3] d8 | 
[V:4] B4G4 | 
[V:5] G,4B,4 | 
[V:1] c4c4 | 
[V:2] A8 | 
[V:3] e8 | 
[V:4] c6BA | 
[V:5] A,8 | 
[V:1] d3cB2A2 | 
[V:2] F4G2A2- | 
[V:3] d8- | 
[V:4] A4z4 | 
[V:5] D,4G,2F,2 | 
[V:1] B4c4 | 
[V:2] AGG4^F2 | 
[V:3] d4c4 | 
[V:4] z4z2A2 | 
[V:5] G,4A,4 | 
[V:1] B2d3cAB | 
[V:2] G4A4- | 
[V:3] d4f4 | 
[V:4] B4A2d2 | 
[V:5] G,3F,D,4 | 
[V:1] cdc3BAG | 
[V:2] A4c4 | 
[V:3] e4a4- | 
[V:4] c3BA4 | 
[V:5] A,4F,3E, | 
[V:1] FDd3cBA | 
[V:2] d2A2B4 | 
[V:3] a2f2g4- | 
[V:4] d4G4 | 
[V:5] D,4z2G,2- | 
[V:1] B2A4G2 | 
[V:2] d4c2d2- | 
[V:3] g2f2e2d2 | 
[V:4] d4z4 | 
[V:5] G,F,D,2A,2B,2 | 
[V:1] A8 | 
[V:2] d2^cBc4 | 
[V:3] e8 | 
[V:4] z8 | 
[V:5] A,3G,A,4 | 
[V:1] F4z2D2 | 
[V:2] d4B4 | 
[V:3] d8- | 
[V:4] A4B2G2 | 
[V:5] D,4G,3G, | 
[V:1] F4G4 | 
[V:2] A4z4 | 
[V:3] d8- | 
[V:4] A4B4 | 
[V:5] D,2D,2G,2G,2 | 
[V:1] A4d4 | 
[V:2] z8 | 
[V:3] d8 | 
[V:4] A2A3^F^G2 | 
[V:5] D,2D,C,B,,2B,,2 | 
[V:1] c3B/A/G4 | 
[V:2] z2E2EFGA | 
[V:3] z8 | 
[V:4] A3Bcde2- | 
[V:5] A,,4z4 | 
[V:1] z2A2B2c2 | 
[V:2] B2A2G2A2- | 
[V:3] z8 | 
[V:4] edf2e2c2 | 
[V:5] z8 | 
[V:1] d2d4cB | 
[V:2] A2G2A4- | 
[V:3] d8 | 
[V:4] B4A4 | 
[V:5] z4D,4 | 
[V:1] c4d3c | 
[V:2] A4z4 | 
[V:3] e4f4- | 
[V:4] A8 | 
[V:5] A,,4D,3E, | 
[V:1] A2c3=BG2 | 
[V:2] A,3B,C3D | 
[V:3] f4e2d2 | 
[V:4] z8 | 
[V:5] F,G,A,3G,_B,2 | 
[V:1] ABcdefge | 
[V:2] E3FG4 | 
[V:3] c6B2 | 
[V:4] z8 | 
[V:5] A,3G,/F,/E,4 | 
[V:1] f3edce2- | 
[V:2] A3GFEG2- | 
[V:3] d6c2 | 
[V:4] z8 | 
[V:5] D,4z4 | 
[V:1] edd4^c2 | 
[V:2] GFEDE4 | 
[V:3] B4A4 | 
[V:4] z8 | 
[V:5] z8 | 
[V:1] d4A3B | 
[V:2] D2F4ED | 
[V:3] d8 | 
[V:4] A4A4- | 
[V:5] D,8 | 
[V:1] cde4d2 | 
[V:2] E4A4 | 
[V:3] c6d2 | 
[V:4] A2G2F4 | 
[V:5] A,,6B,,2 | 
[V:1] c2B2A4 | 
[V:2] G4z4 | 
[V:3] e4f4 | 
[V:4] E4A4 | 
[V:5] C,4D,4 | 
[V:1] G4c4 | 
[V:2] E4A4 | 
[V:3] g4f2e2 | 
[V:4] c2B2A4 | 
[V:5] E,4F,4 | 
[V:1] B2G4^F2 | 
[V:2] G4c4 | 
[V:3] d4c4 | 
[V:4] B4c2A2 | 
[V:5] G,4A,4 | 
[V:1] G4z4 | 
[V:2] B4A2A2- | 
[V:3] d4f4 | 
[V:4] BcdBc2d2 | 
[V:5] G,4F,2D,2 | 
[V:1] B4c4 | 
[V:2] A2^G2A4 | 
[V:3] e8 | 
[V:4] B4A4- | 
[V:5] E,4A,,4 | 
[V:1] d2f3ed2- | 
[V:2] F3GA2_B2- | 
[V:3] d8- | 
[V:4] A4F4 | 
[V:5] D,8 | 
[V:1] dc_BAB4 | 
[V:2] BAGFG4 | 
[V:3] d8 | 
[V:4] G8 | 
[V:5] G,,8 | 
[V:1] A8 ||  
[V:2] F8 ||  
[V:3] d8 ||  
[V:4] A8 ||  
[V:5] D,8 ||  
[V:1] [M:2/1]A4A4 | 
[V:2] [M:2/1]D4D4 | 
[V:3] [M:2/1]A8- | 
[V:4] [M:2/1]F4F4 | 
[V:5] [M:2/1]D,4D,4 | 
[V:1] c4d4 | 
[V:2] E4D4 | 
[V:3] A8 | 
[V:4] E4F4 | 
[V:5] A,,4D,4 | 
[V:1] d4z4 | 
[V:2] D2G3FG2 | 
[V:3] B8 | 
[V:4] GABcd2e2- | 
[V:5] G,,4G,4 | 
[V:1] c8 | 
[V:2] E3DE2F2 | 
[V:3] c8 | 
[V:4] edcBA4 | 
[V:5] A,4A,4 | 
[V:1] B4B4 | 
[V:2] G4G4 | 
[V:3] d8 | 
[V:4] B8 | 
[V:5] G,4G,4 | 
[V:1] A4c4 | 
[V:2] A4A4 | 
[V:3] f8 | 
[V:4] c6c2 | 
[V:5] F,4F,4 | 
[V:1] c6c2 | 
[V:2] G8 | 
[V:3] e8 | 
[V:4] c4G4 | 
[V:5] C,6C,2 | 
[V:1] c4c2c2- | 
[V:2] G4G4- | 
[V:3] e8 | 
[V:4] E6F2 | 
[V:5] C,4C,4 | 
[V:1] c2BAB2d2- | 
[V:2] G2G2G4- | 
[V:3] d8- | 
[V:4] G8 | 
[V:5] G,,8 | 
[V:1] dcBAB4 | 
[V:2] G4G4 | 
[V:3] d4B4 | 
[V:4] z4d4 | 
[V:5] G,8 | 
[V:1] A8 | 
[V:2] E4F4 | 
[V:3] c6d2 | 
[V:4] c2A3GA2 | 
[V:5] A,4F,4 | 
[V:1] z4d4 | 
[V:2] G4z2A2 | 
[V:3] e4f4 | 
[V:4] B2c2d4 | 
[V:5] E,4D,4 | 
[V:1] e4e2f2- | 
[V:2] c2c2cBAG | 
[V:3] g4a4- | 
[V:4] c4A2d2- | 
[V:5] z8 | 
[V:1] fec2d2e2- | 
[V:2] F2E2D2C2- | 
[V:3] a4g4 | 
[V:4] dcA2B2c2 | 
[V:5] z8 | 
[V:1] edcBA3B | 
[V:2] CDE2F2A2- | 
[V:3] a4f4 | 
[V:4] A4d4 | 
[V:5] z8 | 
[V:1] c2d4^c2 | 
[V:2] A2G2A4- | 
[V:3] e8 | 
[V:4] c2B2A4 | 
[V:5] z8 | 
[V:1] d2A2A2A2 | 
[V:2] A4F4 | 
[V:3] d8- | 
[V:4] A8 | 
[V:5] D,8 | 
[V:1] _B3AG2F2 | 
[V:2] G3ABcd2- | 
[V:3] d8 | 
[V:4] z8 | 
[V:5] G,8 | 
[V:1] E4D4 | 
[V:2] d2^c2d2D2- | 
[V:3] z8 | 
[V:4] z4G4- | 
[V:5] A,4_B,4- | 
[V:1] G2F2G4 | 
[V:2] D2C2D2E2 | 
[V:3] z8 | 
[V:4] G2A2_B4 | 
[V:5] B,2A,2G,4 | 
[V:1] A4c4 | 
[V:2] F2A4G2 | 
[V:3] f8- | 
[V:4] c8 | 
[V:5] F,6E,2 | 
[V:1] d4e4 | 
[V:2] A2B2c4 | 
[V:3] f4e4 | 
[V:4] F4G2A2- | 
[V:5] D,4C,4 | 
[V:1] A4B4 | 
[V:2] z8 | 
[V:3] d8 | 
[V:4] A2GFG4 | 
[V:5] D,4B,,4 | 
[V:1] c8 | 
[V:2] E6F2 | 
[V:3] c8 | 
[V:4] A8 | 
[V:5] A,,4A,4 | 
[V:1] B4A4- | 
[V:2] G4A2B2 | 
[V:3] d4f4- | 
[V:4] B4c4- | 
[V:5] G,4F,4 | 
[V:1] A4z2D2 | 
[V:2] c4B4 | 
[V:3] f2e2g4- | 
[V:4] c4d4 | 
[V:5] A,4G,4 | 
[V:1] E2F2G4 | 
[V:2] G2A3GG2- | 
[V:3] g2f2e2d2 | 
[V:4] z8 | 
[V:5] C6B,2 | 
[V:1] A4B4- | 
[V:2] G2^F2G4- | 
[V:3] c4B2c2 | 
[V:4] z4d4 | 
[V:5] A,4G,4- | 
[V:1] B4A4 | 
[V:2] G4z4 | 
[V:3] d4f4 | 
[V:4] B4c4- | 
[V:5] G,4F,3E,/D,/ | 
[V:1] c4B2A2- | 
[V:2] G6A2 | 
[V:3] e4d4- | 
[V:4] c4G2F2 | 
[V:5] C,4z4 | 
[V:1] AGG4^F2 | 
[V:2] B4c4 | 
[V:3] d4c4 | 
[V:4] G4A4 | 
[V:5] z8 | 
[V:1] G4D4 | 
[V:2] B2d3cBA | 
[V:3] d4B4 | 
[V:4] G8 | 
[V:5] G,,8 | 
[V:1] E3FG4 | 
[V:2] G4E2G2- | 
[V:3] c6d2 | 
[V:4] G4G4 | 
[V:5] C,8 | 
[V:1] z2c4B2 | 
[V:2] GFEDC2G2 | 
[V:3] e8 | 
[V:4] c3BA2G2 | 
[V:5] C,4C,4 | 
[V:1] A2G2F3E/D/ | 
[V:2] F2G2A3B | 
[V:3] A8 | 
[V:4] d8 | 
[V:5] D,8 | 
[V:1] E2G2A4- | 
[V:2] c6B2 | 
[V:3] z8 | 
[V:4] G4z4 | 
[V:5] C,4F,4- | 
[V:1] A2B2c4- | 
[V:2] A2G4^F2 | 
[V:3] c8 | 
[V:4] z8 | 
[V:5] F,2G,2A,4 | 
[V:1] c2BAB4 | 
[V:2] G8 | 
[V:3] d8 | 
[V:4] z4G4- | 
[V:5] G,8 | 
[V:1] c4z4 | 
[V:2] z8 | 
[V:3] e4g4 | 
[V:4] G2A2G2c2- | 
[V:5] C,4E,4 | 
[V:1] d4d4 | 
[V:2] z8 | 
[V:3] f8 | 
[V:4] c2BAB4 | 
[V:5] D,8 | 
[V:1] e6d2 | 
[V:2] G8 | 
[V:3] e8- | 
[V:4] c4G4- | 
[V:5] C,8- | 
[V:1] c4B4 | 
[V:2] G4G4 | 
[V:3] e4d4 | 
[V:4] G2A2B2G2 | 
[V:5] C,4G,4 | 
[V:1] A8 | 
[V:2] C6D2 | 
[V:3] f8 | 
[V:4] A6GF | 
[V:5] F,6E,D, | 
[V:1] z4A4 | 
[V:2] E2C2F3G | 
[V:3] e4d4- | 
[V:4] G2A3GFE | 
[V:5] C,4D,4- | 
[V:1] F2G2A4 | 
[V:2] A2B2c2A2 | 
[V:3] d4c4 | 
[V:4] D2G4^F2 | 
[V:5] D,2C,B,,A,,4 | 
[V:1] D4G4 | 
[V:2] B2c2d2G2- | 
[V:3] B8 | 
[V:4] G4d4 | 
[V:5] G,,8 | 
[V:1] A6GF | 
[V:2] G2FEF4 | 
[V:3] A8 | 
[V:4] d8 | 
[V:5] D,8 | 
[V:1] E2G3FED | 
[V:2] G4E2c2- | 
[V:3] z4c4- | 
[V:4] G4z4 | 
[V:5] C,8 | 
[V:1] E4z2D2- | 
[V:2] cBA4^G2 | 
[V:3] c4d4 | 
[V:4] A4B4 | 
[V:5] z8 | 
[V:1] DEFGA3B | 
[V:2] A4z2A2- | 
[V:3] f8 | 
[V:4] A4d4 | 
[V:5] D,4D,E,F,G, | 
[V:1] cde3dd2- | 
[V:2] A2A2G4 | 
[V:3] e4e4- | 
[V:4] c4z4 | 
[V:5] A,3B,C2B,2 | 
[V:1] d2^c2d4- | 
[V:2] A4F4 | 
[V:3] e4d4 | 
[V:4] z2A4B2 | 
[V:5] A,4D,3E, | 
[V:1] d4z4 | 
[V:2] z4F4 | 
[V:3] d8 | 
[V:4] A2B3Ad2- | 
[V:5] F,2G,2D,2F,2 | 
[V:1] z4A4 | 
[V:2] G4F4 | 
[V:3] z8 | 
[V:4] d2^c2d4 | 
[V:5] E,4D,4 | 
[V:1] c4B4 | 
[V:2] E4D2d2- | 
[V:3] g8 | 
[V:4] G6D2- | 
[V:5] C,3B,,G,,4 | 
[V:1] A4z4 | 
[V:2] d2c2d2e2- | 
[V:3] f6e2 | 
[V:4] D2E2F2G2 | 
[V:5] D,2A,,2D,2C,2 | 
[V:1] D4E4 | 
[V:2] edd4^c2 | 
[V:3] f4g4- | 
[V:4] D2F2E4 | 
[V:5] D,4z4 | 
[V:1] D4d4- | 
[V:2] d4B4 | 
[V:3] g2f2d4- | 
[V:4] G8 | 
[V:5] G,,8 | 
[V:1] d2f4e2 | 
[V:2] A4D2E2 | 
[V:3] d4a4- | 
[V:4] F3GABc2 | 
[V:5] D,6C,2 | 
[V:1] d2c2B4 | 
[V:2] F4G4 | 
[V:3] a4g4 | 
[V:4] A4e4 | 
[V:5] D,4E,4 | 
[V:1] A2c4B2 | 
[V:2] A4G4 | 
[V:3] f4e2d2 | 
[V:4] A4z4 | 
[V:5] F,4G,4 | 
[V:1] A2G2F4 | 
[V:2] E4D3E | 
[V:3] c4d4- | 
[V:4] z8 | 
[V:5] A,4_B,4- | 
[V:1] _B4A4 | 
[V:2] F2G2ABcd | 
[V:3] d4f4 | 
[V:4] z8 | 
[V:5] B,2A,G,F,2A,2- | 
[V:1] z4A3G | 
[V:2] c2d4^c2 | 
[V:3] e8 | 
[V:4] z8 | 
[V:5] A,2G,2A,4 | 
[V:1] FED2def2 | 
[V:2] d3cB2A2 | 
[V:3] d8 | 
[V:4] z8 | 
[V:5] _B,3A,G,2F,2 | 
[V:1] e2d4^c2 | 
[V:2] G2F2E4 | 
[V:3] z8 | 
[V:4] z4z2A2 | 
[V:5] G,4A,4 | 
[V:1] d2A2A2A2 | 
[V:2] D8 | 
[V:3] f8 | 
[V:4] A2A2d3c | 
[V:5] D,4z4 | 
[V:1] d3cB2A2- | 
[V:2] z8 | 
[V:3] d8 | 
[V:4] B2A2G2F2 | 
[V:5] G,6A,2 | 
[V:1] A2^G2A4 | 
[V:2] z8 | 
[V:3] e8 | 
[V:4] E4A4 | 
[V:5] B,4C4 | 
[V:1] F4G2A2 | 
[V:2] z8 | 
[V:3] d8- | 
[V:4] _B3AG2F2 | 
[V:5] D3CB,2A,2 | 
[V:1] D2d2e3d/e/ | 
[V:2] z4G4 | 
[V:3] d4^c4 | 
[V:4] _B2A4G2 | 
[V:5] G,2F,2E,4 | 
[V:1] f2d3c/B/A2 | 
[V:2] F3GA2F2 | 
[V:3] d4f4 | 
[V:4] A4d4 | 
[V:5] D,8 | 
[V:1] G4z4 | 
[V:2] G2E4DC | 
[V:3] e4a4- | 
[V:4] B2c3BAG | 
[V:5] E,4F,4- | 
[V:1] z8 | 
[V:2] D4E3F | 
[V:3] a2f2g4- | 
[V:4] A4B2G2 | 
[V:5] F,4E,4- | 
[V:1] G4G4 | 
[V:2] G2A2B4 | 
[V:3] g2f2e2d2 | 
[V:4] c4B4 | 
[V:5] E,2F,2G,4 | 
[V:1] G6G2 | 
[V:2] c3de2c2- | 
[V:3] e8 | 
[V:4] G4c4 | 
[V:5] C,8 | 
[V:1] G4G4 | 
[V:2] c2BAB4 | 
[V:3] d8- | 
[V:4] z4G4 | 
[V:5] G,8 | 
[V:1] F6F2 | 
[V:2] A8 | 
[V:3] d8- | 
[V:4] A4A4 | 
[V:5] D,8- | 
[V:1] F4z2A2 | 
[V:2] A4d3c | 
[V:3] d8 | 
[V:4] d3cB2A2 | 
[V:5] D,8 | 
[V:1] d3cB2A2 | 
[V:2] B2A2d2e2- | 
[V:3] z8 | 
[V:4] G2d4A2 | 
[V:5] z8 | 
[V:1] G2F2E4 | 
[V:2] edd4^c2 | 
[V:3] z8 | 
[V:4] c2d2A4 | 
[V:5] z8 | 
[V:1] D2G4F2 | 
[V:2] d4z4 | 
[V:3] d8 | 
[V:4] z8 | 
[V:5] G,6D,2 | 
[V:1] G4z2A2 | 
[V:2] B4A4 | 
[V:3] e4f4- | 
[V:4] z4c4 | 
[V:5] G,4F,4- | 
[V:1] c3de2f2- | 
[V:2] A4A4- | 
[V:3] f4e2d2 | 
[V:4] c6_B2 | 
[V:5] F,2E,D,C,2D,2 | 
[V:1] f2ede4 | 
[V:2] A2F2G4 | 
[V:3] c6B2 | 
[V:4] A4G4 | 
[V:5] F,4E,4 | 
[V:1] f4d4 | 
[V:2] F8 | 
[V:3] d6c2 | 
[V:4] A3G/A/_B2A2 | 
[V:5] D,8 | 
[V:1] d4c4- | 
[V:2] G2G4^F2 | 
[V:3] _B4A4 | 
[V:4] G4A4 | 
[V:5] G,,4z4 | 
[V:1] c2BAB4 | 
[V:2] G8 | 
[V:3] d8 | 
[V:4] G8 | 
[V:5] z4G,,4 | 
[V:1] c8- | 
[V:2] E6F2 | 
[V:3] c6d2 | 
[V:4] G8 | 
[V:5] C,8 | 
[V:1] c4A4 | 
[V:2] G2A3GFE | 
[V:3] e4f4 | 
[V:4] z4d4 | 
[V:5] C,4D,4 | 
[V:1] B4c4 | 
[V:2] D4C4 | 
[V:3] g4f2e2 | 
[V:4] B4A4- | 
[V:5] G,4A,4 | 
[V:1] d4e4- | 
[V:2] F4E4 | 
[V:3] d4c4 | 
[V:4] A2B2c2A2 | 
[V:5] D,4A,4 | 
[V:1] e2d2d4- | 
[V:2] G4A4- | 
[V:3] d4f4 | 
[V:4] B4A4 | 
[V:5] G,4D,4 | 
[V:1] d2^cBc4 | 
[V:2] A8 | 
[V:3] e8 | 
[V:4] c8 | 
[V:5] A,8 | 
[V:1] d8- | 
[V:2] A8- | 
[V:3] d8- | 
[V:4] A8 | 
[V:5] D,8- | 
[V:1] d8 |]  
[V:2] A8 |]  
[V:3] d8 |]  
[V:4] A8 |]  
[V:5] D,8 |]  



